X: 031920
T: Cock Your Pistol Charlie
S: "Roche Collection of Traditional Irish Music" [II/21/242]
L: 1/8
M: 2/4
R: polka
K: Ador
z | E>A AB | cd ec | d>B cA | GE ED |
E>A AB | cd ef | g>e dB | BA A :|
(3e/f/g/ | a>g eg | ag ef | g>e df | ga bg |
ag eg | ag ef | ge dB | BA A (3e/f/g/ |
a>g eg | ag ef | g>e df | ga bf | 
g>a bg | ag ef | g>e dB | BA A2 ||
